X:154
T:Hearts of Oak. RH.154
R:Air
S:Rev.R.Harrison’s MS,c1815,Cumbria
O:England
A:Temple Sowerby,Cumbria
Z:vmp.Simon Wilson. Review PJH, 2008.
M:C
L:1/8
Q:1/2=60
K:D
A|d2ddd2fe|d2cBA2zA|B2Bcd2de|f2gef2zA|\
d2FGA2Bc|d2FGA2ze|f2eda2cd|!
e2eEA2e>e|e2cde2f>e|f2cef2zf|edcf dBz2|\
d>dA2F<DzA|Bcdef2ed|a2Acd2z2|]

